X:11562
T:My Love Is But A Lassie Yet. WM.135
M:2/4
L:1/8
Q:240
S:Wm.Mittell's MS,New Romney,Kent,1799
R:Reel
O:England
A:Kent
N:
D:
H:
Z:vmp.Chris Partington
W:
K:D
B/c/|dDFA|{c}dDD B/C/|dDFA|{^d}eEE B/C/|dDFA|!dgf>e|d/c/B/A/ Bc|{c}dDD:|
|:f/g/|.a.f.g.e|.f.d.d f/g/|!afgf|eEE f/g/|afge|fde>e|d/c/B/A/ Bc|{c}dDD
:|]
